src/assets/skills/linkedin-skills.svg

<svg width="26" height="26" viewBox="0 0 26 26" fill="none" xmlns="http://www.w3.org/2000/svg">
<path d="M5.395 3.79183C5.395 5.28791 4.1925 6.50016 2.70833 6.50016C1.22417 6.50016 0.0216667 5.28791 0.0216667 3.79183C0.0216667 2.29683 1.22417 1.0835 2.70833 1.0835C4.1925 1.0835 5.395 2.29683 5.395 3.79183ZM5.41667 8.66683H0V26.0002H5.41667V8.66683ZM14.0638 8.66683H8.68183V26.0002H14.0649V16.9012C14.0649 11.8421 20.5963 11.4282 20.5963 16.9012V26.0002H26V15.0249C26 6.48825 16.3345 6.79916 14.0638 11.0014V8.66683Z" fill="#EF233C"/>
</svg>

<svg xmlns="http://www.w3.org/2000/svg" width="26" height="26" fill="none"><path fill="#EF233C" d="M5.395 3.792A2.697 2.697 0 0 1 2.708 6.5 2.697 2.697 0 0 1 .022 3.792c0-1.495 1.202-2.708 2.686-2.708s2.687 1.213 2.687 2.708Zm.022 4.875H0V26h5.417V8.667Zm8.647 0H8.682V26h5.383v-9.099c0-5.059 6.531-5.473 6.531 0v9.1H26V15.024C26 6.488 16.334 6.799 14.064 11V8.667Z"/></svg>
